public/images/logos/data-gouv.svg

<svg width="586" height="184" viewBox="0 0 586 184" fill="none" xmlns="http://www.w3.org/2000/svg">
<path d="M452.393 93.0484H459.931L481.587 146.531L503.124 93.0484H510.782L486.254 153.351H476.921L452.393 93.0484Z" fill="#000091"/>
<path d="M435.832 127.746V93.0484H442.772V127.627C442.772 145.574 432.482 155.744 417.047 155.744C401.493 155.744 391.084 145.574 391.084 127.627V93.0484H398.143V127.746C398.143 141.386 405.681 149.044 417.047 149.044C428.175 149.044 435.832 141.386 435.832 127.746Z" fill="#000091"/>
<path d="M345.791 90.6516C365.174 90.6516 378.216 105.967 378.216 123.196C378.216 140.425 365.174 155.74 345.791 155.74C326.528 155.74 313.486 140.425 313.486 123.196C313.486 105.967 326.528 90.6516 345.791 90.6516ZM345.911 149.04C360.149 149.04 370.678 136.836 370.678 123.196C370.678 109.317 360.149 97.352 345.911 97.352C331.194 97.352 320.784 109.436 320.784 123.196C320.784 136.956 331.194 149.04 345.911 149.04Z" fill="#000091"/>
<path d="M251.362 164.481C251.362 158.259 254.473 153.354 260.695 148.807C257.703 146.773 256.268 143.542 256.268 140.312C256.268 135.646 259.139 131.578 263.805 128.826C258.421 124.877 255.31 118.656 255.31 111.955C255.31 100.589 264.284 90.5381 278.163 90.5381C282.351 90.5381 286.18 91.4953 289.41 93.0508H312.024V99.2725H296.948C299.58 102.862 301.136 107.289 301.136 111.955C301.136 123.322 292.162 133.372 278.163 133.372C274.574 133.372 271.343 132.654 268.472 131.578C264.882 133.612 262.968 136.603 262.968 139.235C262.968 141.987 264.284 144.141 268.711 144.141H287.137C303.529 144.141 310.349 151.678 310.349 162.088C310.349 174.292 297.905 183.266 280.197 183.266C263.207 183.266 251.362 176.087 251.362 164.481ZM278.283 127.39C288.453 127.39 294.077 120.091 294.077 111.955C294.077 103.58 288.453 96.5206 278.283 96.5206C267.874 96.5206 262.25 103.58 262.25 111.955C262.25 120.211 267.874 127.39 278.283 127.39ZM258.421 163.883C258.421 172.019 267.275 177.164 280.078 177.164C293.957 177.164 303.289 171.54 303.289 162.447C303.289 155.866 299.7 150.602 286.898 150.602H266.916C261.412 154.311 258.421 158.498 258.421 163.883Z" fill="#000091"/>
<path d="M207.877 155.142C195.793 155.142 187.537 148.203 187.537 137.075C187.537 127.982 194.596 121.162 207.518 119.008L225.944 115.897V114.342C225.944 108.001 221.158 103.933 214.218 103.933C208.356 103.933 203.809 106.685 200.578 111.112L189.451 102.616C194.835 95.1983 203.689 90.6516 214.697 90.6516C232.166 90.6516 241.139 101.061 241.139 114.342V153.347H225.944V147.485C222.115 152.151 214.936 155.142 207.877 155.142ZM202.612 136.357C202.612 140.425 205.843 143.058 210.988 143.058C217.927 143.058 222.953 139.827 225.944 135.041V126.546L211.586 128.939C205.245 130.016 202.612 132.648 202.612 136.357Z" fill="#000091"/>
<path d="M147.128 131.338V106.69H135.881V93.0503H147.128V77.9746H162.443V93.0503H180.869V106.69H162.443V131.338C162.443 138.038 166.032 140.67 172.015 140.67C176.203 140.67 178.954 140.192 180.988 139.354V152.635C177.997 153.951 174.408 154.55 169.383 154.55C154.307 154.55 147.128 146.055 147.128 131.338Z" fill="#000091"/>
<path d="M96.2267 155.142C84.1422 155.142 75.8865 148.203 75.8865 137.075C75.8865 127.982 82.9458 121.162 95.8678 119.008L114.294 115.897V114.342C114.294 108.001 109.508 103.933 102.568 103.933C96.7053 103.933 92.1587 106.685 88.9282 111.112L77.8009 102.616C83.1851 95.1983 92.0391 90.6516 103.047 90.6516C120.515 90.6516 129.489 101.061 129.489 114.342V153.347H114.294V147.485C110.465 152.151 103.286 155.142 96.2267 155.142ZM90.9622 136.357C90.9622 140.425 94.1927 143.058 99.3376 143.058C106.277 143.058 111.302 139.827 114.294 135.041V126.546L99.9358 128.939C93.5945 130.016 90.9622 132.648 90.9622 136.357Z" fill="#000091"/>
<path d="M0 123.2C0 105.612 11.6059 90.6561 30.63 90.6561C38.7661 90.6561 44.6289 93.1687 49.2952 97.835V63.6156H64.6102V153.352H49.2952V148.566C44.6289 153.232 38.7661 155.745 30.63 155.745C11.6059 155.745 0 140.789 0 123.2ZM15.9132 123.2C15.9132 133.73 22.4939 141.387 32.7837 141.387C39.6036 141.387 45.2271 138.515 49.2952 133.012V113.389C45.2271 107.885 39.6036 105.014 32.7837 105.014C22.4939 105.014 15.9132 112.671 15.9132 123.2Z" fill="#000091"/>
<path d="M564.485 37.027C564.485 37.027 564.485 36.9846 564.485 36.9563C564.456 34.666 563.23 32.5453 561.256 31.4143L551.388 25.7027C550.471 25.1655 549.414 24.8827 548.329 24.8545C548.174 24.8545 548.033 24.8545 547.878 24.8686C547.116 24.911 546.397 25.0524 545.721 25.321C545.453 25.4341 545.199 25.5613 544.945 25.7027L535.204 31.3436C534.978 31.4709 534.767 31.6123 534.569 31.7678C534.569 31.7678 534.485 31.8243 534.471 31.8243C533.681 32.404 533.061 33.1533 532.624 33.9874C532.596 34.0439 532.553 34.1005 532.525 34.157C532.497 34.2136 532.469 34.2701 532.455 34.3267C532.06 35.1891 531.848 36.1646 531.848 37.1966V48.3089C531.848 48.5068 531.863 48.7188 531.891 48.9733C531.891 49.1006 531.919 49.2419 531.947 49.3975C532.06 50.1609 532.314 50.8819 532.666 51.5322C533.244 52.6067 534.104 53.4974 535.161 54.1053L544.861 59.718C545.213 59.9159 545.481 60.0431 545.749 60.1562C546.425 60.439 547.144 60.5945 547.878 60.6228C547.906 60.6228 547.934 60.6228 547.962 60.6228C548.653 60.6369 549.358 60.5662 550.034 60.3542C550.5 60.2128 550.965 60.0149 551.388 59.7604L561.186 54.0912C562.187 53.5115 563.018 52.6774 563.596 51.6736C564.174 50.6699 564.485 49.5247 564.485 48.3795V37.027Z" fill="#000091"/>
<path d="M531.85 58.0322V76.0387L547.411 85.0489V67.0425L531.85 58.0322Z" fill="#000091"/>
<path d="M562.412 30.5341C562.412 30.5341 562.539 30.6327 562.596 30.6749C562.596 30.6749 562.624 30.689 562.638 30.7031C562.737 30.7734 562.836 30.8579 562.935 30.9283C562.935 30.9283 562.949 30.9424 562.963 30.9565C562.978 30.9705 563.006 30.9846 563.02 30.9987C563.133 31.0972 563.26 31.1958 563.359 31.2943C563.388 31.3225 563.416 31.3507 563.444 31.3788C563.515 31.4492 563.586 31.5196 563.656 31.59C563.685 31.6182 563.713 31.6463 563.727 31.6604C563.826 31.773 563.925 31.8856 564.024 31.9983C564.081 32.0546 564.123 32.125 564.166 32.1813C564.194 32.2235 564.236 32.2658 564.265 32.308C564.293 32.3362 564.321 32.3784 564.349 32.4065C564.448 32.5333 564.533 32.674 564.618 32.8148C564.703 32.9556 564.788 33.0823 564.873 33.2231C564.958 33.378 565.028 33.5328 565.113 33.6877C565.184 33.8285 565.24 33.9552 565.297 34.096C565.354 34.2227 565.396 34.3635 565.438 34.4902C565.438 34.5183 565.453 34.5324 565.467 34.5606C565.467 34.5887 565.481 34.6169 565.495 34.631C565.537 34.7577 565.58 34.8844 565.622 35.0111C565.679 35.2223 565.721 35.4334 565.75 35.6587C565.75 35.6587 565.75 35.6728 565.75 35.6868C565.75 35.715 565.764 35.7572 565.764 35.7854C565.764 35.8558 565.792 35.9121 565.806 35.9825C565.849 36.3063 565.877 36.6442 565.877 36.9821V47.9211L568.055 49.1741V31.1676L552.385 22.1574V24.7338L561.931 30.2244C562.087 30.3089 562.242 30.4074 562.398 30.52L562.412 30.5341Z" fill="#000091"/>
<path d="M510.781 22.1574V40.2358L526.451 49.2821V31.2037L510.781 22.1574Z" fill="#000091"/>
<path d="M564.336 53.0882C564.21 53.2722 564.069 53.4279 563.928 53.5977C563.83 53.7109 563.732 53.8241 563.633 53.9373C563.479 54.1071 563.296 54.2486 563.127 54.4043C563.043 54.4751 562.958 54.56 562.874 54.6449L565.545 56.2016C565.756 56.3289 565.896 56.5554 565.896 56.8101V71.9098L568.061 73.1693V55.0694L564.448 52.9609C564.448 52.9609 564.378 53.0458 564.35 53.0882H564.336Z" fill="#000091"/>
<path d="M544.82 24.2101C544.82 24.2101 544.919 24.1819 544.975 24.1538C545.256 24.027 545.565 23.9285 545.86 23.844C546.098 23.7736 546.337 23.7172 546.59 23.675C546.829 23.6327 547.053 23.5905 547.292 23.5623C547.377 23.5623 547.447 23.5342 547.531 23.5201V19.2816L531.969 10.2695V13.0998L544.469 20.3377C544.68 20.4644 544.82 20.6897 544.82 20.9432V24.2101Z" fill="#000091"/>
<path d="M510.781 64.0539L526.451 73.0547V55.0389L510.781 46.0381V64.0539Z" fill="#000091"/>
<path d="M585.018 64.0539V46.0381L569.456 55.0389V73.0547L585.018 64.0539Z" fill="#000091"/>
<path d="M548.814 85.0489L564.483 76.0387V58.0322L548.814 67.0425V85.0489Z" fill="#000091"/>
<path d="M527.853 49.2821L530.424 47.7838V37.0696C530.424 34.6102 531.589 32.2638 533.555 30.7796C533.555 30.7796 533.584 30.7655 533.598 30.7514C533.598 30.7514 533.612 30.7514 533.626 30.7372C533.654 30.7231 533.682 30.6948 533.696 30.6948C533.949 30.5111 534.131 30.3839 534.342 30.2567L543.415 24.9844V22.1574L527.853 31.2037V49.2821Z" fill="#000091"/>
<path d="M585.018 40.2358V22.1574L569.456 31.2037V49.2821L585.018 40.2358Z" fill="#000091"/>
<path d="M549.196 23.5444C549.351 23.5585 549.491 23.6006 549.646 23.6147C549.829 23.6428 550.025 23.6849 550.208 23.727C550.376 23.7692 550.531 23.8254 550.685 23.8816C550.812 23.9237 550.938 23.9518 551.064 23.9939V20.9175C551.064 20.6647 551.205 20.4399 551.416 20.3135L564.604 12.6997V10.2695L549.042 19.2599V23.5163C549.042 23.5163 549.154 23.5444 549.211 23.5444H549.196Z" fill="#000091"/>
<path d="M530.564 56.454C530.607 56.3838 530.677 56.3277 530.748 56.2716C530.762 56.2716 530.776 56.2435 530.79 56.2295L533.473 54.6858C533.473 54.6858 533.36 54.5735 533.289 54.5174C533.063 54.3209 532.837 54.1244 532.626 53.8999C532.527 53.8017 532.442 53.6894 532.357 53.5911C532.188 53.3947 532.033 53.1982 531.891 52.9877C531.863 52.9456 531.821 52.9035 531.778 52.8474L531.708 52.8895L527.853 55.1068V73.0558L530.437 71.5683V56.8329C530.437 56.7207 530.479 56.6084 530.522 56.5102C530.522 56.4821 530.55 56.4681 530.564 56.44V56.454Z" fill="#000091"/>
<path d="M542.775 20.9044L527.166 11.8879L511.543 20.9044L527.166 29.935L542.775 20.9044Z" fill="#000091"/>
<path d="M563.95 9.03062L548.28 0L532.611 9.03062L548.28 18.0471L563.95 9.03062Z" fill="#000091"/>
<path d="M567.727 29.3283L568.756 29.935L584.379 20.9044L568.756 11.8879L553.147 20.9044L559.746 24.7283L567.727 29.3283Z" fill="#000091"/>
<path d="M568.418 51.0565L565.811 49.5558C565.797 49.654 565.755 49.7662 565.741 49.8644C565.698 50.1028 565.642 50.3412 565.586 50.5656C565.543 50.7059 565.487 50.8461 565.445 50.9724C565.374 51.1827 565.304 51.3791 565.205 51.5895C565.177 51.6456 565.163 51.6876 565.149 51.7437L568.771 53.8194L584.385 44.8434L582.144 43.5531L569.137 51.0285C569.024 51.0846 568.911 51.1266 568.785 51.1266C568.658 51.1266 568.545 51.0986 568.432 51.0285L568.418 51.0565Z" fill="#000091"/>
<path d="M552.032 60.9571C551.511 61.2517 550.947 61.4901 550.383 61.6724C549.988 61.7986 549.579 61.8688 549.17 61.9249C549.029 61.9389 548.888 61.9389 548.747 61.9529C548.535 61.9669 548.338 61.995 548.127 61.995C548.014 61.995 547.901 61.995 547.788 61.995C547.788 61.995 547.774 61.995 547.76 61.995C547.309 61.981 546.872 61.9249 546.435 61.8267C545.997 61.7285 545.574 61.6023 545.166 61.434C544.841 61.2937 544.517 61.1394 544.193 60.9711L534.746 55.5435L533.998 55.9782L532.504 56.8338L548.127 65.8098L549.819 64.828L551.412 63.9164L554.598 62.0791L563.735 56.8338L562.241 55.9782L561.493 55.5435L552.046 60.9711L552.032 60.9571Z" fill="#000091"/>
<path d="M530.553 49.5839C530.553 49.4857 530.525 49.4016 530.511 49.3034L527.507 51.0285C527.395 51.0846 527.282 51.1266 527.155 51.1266C527.028 51.1266 526.915 51.0986 526.802 51.0285L513.786 43.5531L511.543 44.8434L527.169 53.8194L531.103 51.5614C530.864 51.0004 530.68 50.3553 530.568 49.64C530.568 49.64 530.568 49.6119 530.568 49.5979L530.553 49.5839Z" fill="#000091"/>
</svg>

<svg xmlns="http://www.w3.org/2000/svg" fill="#000091" viewBox="0 0 586 184" xmlns:v="https://vecta.io/nano"><path d="M452.393 93.048h7.538l21.656 53.483 21.537-53.483h7.658l-24.528 60.303h-9.333l-24.528-60.303zm-16.561 34.698V93.048h6.94v34.579c0 17.947-10.29 28.117-25.725 28.117-15.554 0-25.963-10.17-25.963-28.117V93.048h7.059v34.698c0 13.64 7.538 21.298 18.904 21.298 11.128 0 18.785-7.658 18.785-21.298zm-90.041-37.094c19.383 0 32.425 15.315 32.425 32.544s-13.042 32.544-32.425 32.544c-19.263 0-32.305-15.315-32.305-32.544s13.042-32.544 32.305-32.544zm.12 58.388c14.238 0 24.767-12.204 24.767-25.844 0-13.879-10.529-25.844-24.767-25.844-14.717 0-25.127 12.084-25.127 25.844s10.41 25.844 25.127 25.844zm-94.549 15.441c0-6.222 3.111-11.127 9.333-15.674-2.992-2.034-4.427-5.265-4.427-8.495 0-4.666 2.871-8.734 7.537-11.486-5.384-3.949-8.495-10.17-8.495-16.871 0-11.366 8.974-21.417 22.853-21.417 4.188 0 8.017.957 11.247 2.513h22.614v6.221h-15.076c2.632 3.59 4.188 8.017 4.188 12.683 0 11.367-8.974 21.417-22.973 21.417-3.589 0-6.82-.718-9.691-1.794-3.59 2.034-5.504 5.025-5.504 7.657 0 2.752 1.316 4.906 5.743 4.906h18.426c16.392 0 23.212 7.537 23.212 17.947 0 12.204-12.444 21.178-30.152 21.178-16.99 0-28.835-7.179-28.835-18.785zm26.921-37.091c10.17 0 15.794-7.299 15.794-15.435 0-8.375-5.624-15.434-15.794-15.434-10.409 0-16.033 7.059-16.033 15.434 0 8.256 5.624 15.435 16.033 15.435zm-19.862 36.493c0 8.136 8.854 13.281 21.657 13.281 13.879 0 23.211-5.624 23.211-14.717 0-6.581-3.589-11.845-16.391-11.845h-19.982c-5.504 3.709-8.495 7.896-8.495 13.281zm-50.544-8.741c-12.084 0-20.34-6.939-20.34-18.067 0-9.093 7.059-15.913 19.981-18.067l18.426-3.111v-1.555c0-6.341-4.786-10.409-11.726-10.409-5.862 0-10.409 2.752-13.64 7.179l-11.127-8.496c5.384-7.418 14.238-11.964 25.246-11.964 17.469 0 26.442 10.409 26.442 23.69v39.005h-15.195v-5.862c-3.829 4.666-11.008 7.657-18.067 7.657zm-5.265-18.785c0 4.068 3.231 6.701 8.376 6.701 6.939 0 11.965-3.231 14.956-8.017v-8.495l-14.358 2.393c-6.341 1.077-8.974 3.709-8.974 7.418zm-55.484-5.019V106.69h-11.247V93.05h11.247V77.975h15.315V93.05h18.426v13.64h-18.426v24.648c0 6.7 3.589 9.332 9.572 9.332 4.188 0 6.939-.478 8.973-1.316v13.281c-2.991 1.316-6.58 1.915-11.605 1.915-15.076 0-22.255-8.495-22.255-23.212zm-50.901 23.804c-12.085 0-20.34-6.939-20.34-18.067 0-9.093 7.059-15.913 19.98-18.067l18.427-3.111v-1.555c0-6.341-4.786-10.409-11.726-10.409-5.863 0-10.41 2.752-13.64 7.179l-11.127-8.496c5.384-7.418 14.238-11.964 25.246-11.964 17.468 0 26.442 10.409 26.442 23.69v39.005h-15.195v-5.862c-3.829 4.666-11.008 7.657-18.067 7.657zm-5.265-18.785c0 4.068 3.23 6.701 8.376 6.701 6.939 0 11.964-3.231 14.956-8.017v-8.495l-14.358 2.393c-6.342 1.077-8.974 3.709-8.974 7.418zM0 123.2c0-17.588 11.606-32.544 30.63-32.544 8.136 0 13.999 2.513 18.665 7.179v-34.22H64.61v89.737H49.295v-4.786c-4.666 4.666-10.529 7.179-18.665 7.179C11.606 155.745 0 140.789 0 123.2zm15.913 0c0 10.53 6.58 18.187 16.87 18.187 6.82 0 12.444-2.872 16.512-8.375v-19.623c-4.068-5.504-9.691-8.375-16.511-8.375-10.29 0-16.87 7.657-16.87 18.186zm548.572-86.173v-.07c-.029-2.291-1.255-4.412-3.229-5.543l-9.868-5.711a6.374 6.374 0 0 0-3.059-.848c-.155 0-.296 0-.451.014a6.817 6.817 0 0 0-2.157.452 7.75 7.75 0 0 0-.776.382l-9.741 5.64a4.991 4.991 0 0 0-.635.425s-.084.056-.098.056a6.3 6.3 0 0 0-1.847 2.163c-.028.057-.071.113-.099.17s-.056.113-.07.17a6.88 6.88 0 0 0-.607 2.87v11.112c0 .198.015.41.043.664 0 .128.028.269.056.425a6.49 6.49 0 0 0 .719 2.134 6.529 6.529 0 0 0 2.495 2.573l9.7 5.613a8.31 8.31 0 0 0 .888.438 6.115 6.115 0 0 0 2.129.467h.084c.691.014 1.396-.057 2.072-.269.466-.141.931-.34 1.354-.594l9.798-5.669a6.634 6.634 0 0 0 3.299-5.712V37.028zM531.85 58.032V76.04l15.561 9.01V67.042l-15.561-9.01zm30.562-27.498l.184.14a.2.2 0 0 0 .042.03l.297.224.028.028c.015.015.043.029.057.043l.339.295.085.085.212.211.071.07.297.338c.057.057.099.127.142.183.028.043.07.085.099.127.028.028.056.07.084.099.099.126.184.267.269.408l.255.408.24.465.184.408c.057.127.099.268.141.394 0 .028.015.042.029.07 0 .029.014.057.028.071l.127.38c.057.211.099.422.128.648v.028c0 .028.014.07.014.098 0 .07.028.127.042.198.043.323.071.661.071 1V47.92l2.178 1.253V31.168l-15.67-9.01v2.576l9.546 5.49a4.31 4.31 0 0 1 .467.296l.014.014zm-51.631-8.377v18.079l15.67 9.046V31.204l-15.67-9.047zm53.555 30.931c-.126.184-.267.34-.408.51l-.295.34c-.154.17-.337.31-.506.466-.084.071-.169.156-.253.24l2.671 1.558a.714.714 0 0 1 .351.608v15.1l2.165 1.26v-18.1l-3.613-2.11-.098.128h-.014zM544.82 24.21s.099-.028.155-.056c.281-.127.59-.226.885-.31a6.07 6.07 0 0 1 .73-.169l.702-.113c.085 0 .155-.028.239-.042v-4.238l-15.562-9.012v2.83l12.5 7.238a.71.71 0 0 1 .351.605v3.267zm-34.039 39.844l15.67 9V55.04l-15.67-9v18.015zm74.237 0V46.038l-15.562 9v18.017l15.562-9.001zm-36.204 20.995l15.669-9.01V58.032l-15.669 9.01V85.05zm-20.961-35.767l2.571-1.498V37.07a7.91 7.91 0 0 1 3.131-6.29s.029-.015.043-.029c0 0 .014 0 .028-.014.028-.014.056-.042.07-.042l.646-.438 9.073-5.273v-2.827l-15.562 9.047v18.078zm57.165-9.046V22.157l-15.562 9.047v18.078l15.562-9.046zm-35.822-16.692c.155.014.295.057.45.07l.562.113c.168.042.323.098.477.155l.379.112v-3.076c0-.253.141-.478.352-.604l13.188-7.614v-2.43l-15.562 8.99v4.256a.99.99 0 0 0 .169.028h-.015zm-18.632 32.91a.758.758 0 0 1 .184-.182c.014 0 .028-.029.042-.042l2.683-1.544-.184-.169-.663-.617c-.099-.098-.184-.21-.269-.309a6.466 6.466 0 0 1-.466-.603c-.028-.042-.07-.084-.113-.14l-.07.041-3.855 2.218v17.949l2.584-1.488V56.833a.83.83 0 0 1 .085-.323c0-.028.028-.042.042-.07v.014zm12.211-35.55l-15.609-9.016-15.623 9.016 15.623 9.031 15.609-9.03zM563.95 9.03L548.28 0l-15.669 9.03 15.669 9.017 15.67-9.016zm3.777 20.298l1.029.607 15.623-9.03-15.623-9.017-15.609 9.016 6.599 3.824 7.981 4.6zm.691 21.728l-2.607-1.5c-.014.098-.056.21-.07.308a10.94 10.94 0 0 1-.155.702l-.141.406-.24.617a.684.684 0 0 0-.056.155l3.622 2.075 15.614-8.976-2.241-1.29-13.007 7.476a.784.784 0 0 1-.352.098.64.64 0 0 1-.353-.099l-.014.029zm-16.386 9.901a8.987 8.987 0 0 1-1.649.715 7.172 7.172 0 0 1-1.213.253l-.423.028-.62.042h-.367a6.988 6.988 0 0 1-1.325-.168 7.77 7.77 0 0 1-1.269-.393l-.973-.463-9.447-5.427-.748.434-1.494.856 15.623 8.976 1.692-.982 1.593-.912 3.186-1.837 9.137-5.245-1.494-.856-.748-.434-9.447 5.427-.014-.014zm-21.479-11.373c0-.098-.028-.182-.042-.28l-3.004 1.724a.777.777 0 0 1-.352.099.64.64 0 0 1-.353-.099l-13.016-7.475-2.243 1.29 15.626 8.976 3.934-2.258a8.114 8.114 0 0 1-.535-1.921v-.042l-.015-.014z"/></svg>
